X: 1
P:The High Reel
C:From Matt Petrie
C:Arr. T. Traub 7-9-03
R:reel
M:4/4
K:Bb
L:1/8
|: f |"Bb"b2 gb fd B2|"Bb"d/2c/2B fB gBfB|"Bb"b2 gb fd B2|"Ab"cded c_AAf|"Bb"b2 gb fd B2|
"Bb"defg _a2 ga|"Eb"bg_af gefd|"Ab"cded c_AA :||: e|"Bb"d/2c/2B fB gBfB|"Bb"d/2c/2B bg fd B2|
"Bb"d/2c/2B fB gBfB|"Ab"cded c_AAc|"Bb"d/2c/2B fB gBfB|"Bb"defg _a2 ga|"Eb"bg_af gefd|"Ab"cded c_AA :|
